X: 24836
T: Maggie West's
R: waltz
M: 3/4
K: Gmajor
GA|"G" B3 B AG|"C" E G3 GA|"G" B>d d>g (3gab|"D" a4 ga|
"C" g e3 ge|"G" e d2 B (3BAG|1 "D" A3 B A>G|"D" A4:|2 "D" A3 B GF|"G" G3||
"G" d (3BAG|"G" A G2 d (3BAG|"G" A G2 d (3BAG|"G" A>B d>g (3gab|
"D" a4 ga|"C" g e3 ge|e"G" d2 B (3BAG|1 "Am" A3 B A>G|"D" A4:|2 "D" A3 B GF|"G" G4||

